X:148
T:Lad O'Beirne's
R:Reel
C:Lad O'Beirne
O:Ireland
D:Arty McGlynn & Nollaig Casey: Lead the Knave
D:Dervish: The Boys of Sligo
S:hnreel~1.abc mostly, + ricker~3.abc
Z:Transcription:Henrik Norbeck?, slight arr., chords:Mike Long
M:C|
L:1/8
K:G
E|\
"G"DG~G2 DGBG|"C"(3(ABc) BG AGEG|"G"DGGF GABd|"D"(3(efg) dg edge|\
"G"dB~B2 dBGB|
"C"cE~E2 GEDB,|"G"DEGA B2eB|"D"dBAc "G"BGG:|\
|:A|\
"G"Bd~d2 d2ef|"C"~g2bg abge|
"G"dB~B2 GBdB|"C"cE~E2 "D"GED2|\
"G"Bd~d2 d2ef|"C"~g2bg abge|"G"DEGA B2eB|"D"dBAc "G"BGG:|
